X:1
T:Title
%%score ( 1 2 ) ( 3 4 )
L:1/8
Q:1/4=107
M:4/4
K:A
V:1 treble nm="Grand Piano, Soprano"
V:2 treble 
V:3 bass nm="Choir Pad, Wennerberg"
V:4 bass 
V:1
 AG [DF]2 E2 [DF]2 | G-[DG] [CA]6 | AG [DF]2 E2 [DF]2 | [DG]2 [CA]6 | c^d [Ee]2 [EB]2 [D=d]2 | %5
w: By~Gunnar~Wennerberg~(1817\-1901) * * * *|||||
 [DA]2 [Cc]2 [CF]2 [EB]2 | E^E [DF]2 dB [=EA]2 | [DG]2 [CA]6- | [CA]2 z2 z4 |] %9
w: ||||
V:2
 E2 z2 z4 | .E2 z2 z4 | C2 z2 z4 | x8 | E2 z2 z4 | x8 | z4 F2 z2 | x8 | x8 |] %9
V:3
 [C,A,]2 [D,A,]2 [C,A,]2 [D,A,]2 | [B,,E,]2 [A,,E,]6 | A,2 z2 z4 | [B,,E,]2 [A,,E,]6 | %4
 A,2 [G,B,]2 [=G,B,]2 [F,A,]2 | [^E,A,]2 [=E,A,]2 [^D,A,]2 [=D,G,]2 | z4 .B,2 z2 | %7
 [E,B,]2 [A,,A,]6- | [A,,A,]2 z2 z4 |] %9
V:4
 x8 | x8 | F,E, [D,A,]2 [C,A,]2 [B,,A,]2 | x8 | x8 | x8 | [C,A,]2 [D,A,]2 B,,-[B,,D] [E,C]2 | x8 | %8
 x8 |] %9

